X:6280
T:Girls of Banbridge, The
T:Galbally Jig, The
R:jig
Z:id:hn-jig-287
M:6/8
K:D
Add dcB|A2G FED|~F3 FED|~E3 EFG|
Add dcB|A2G FED|~f3 gec|edc d3:|
|:Adf ~f2a|agf efg|~f3 ged|~c3 BcB|
Adf ~f2a|agf efg|~f3 gec|edc d3:|
